X:1
T:The Bonny Lass Of Fisherrow
M:4/4
L:1/8
R:reel
K:Cmaj
|:A|GEcG AcGE|CEGE D2DA|GEGc AFAc|BdGB c2c:|
f|ecgc ecca|gcec defa|gceg fagf|egde c2cf|
ecgc ecca|gcec defd|cFAc BAGf|egde c2c||
